X: 15645
T: Going To Boston
R: polka
M: 2/4
K: Dmajor
|:D/D/F AA|B>B GE|E/E/F GG|A>A FD|
D/D/F AA|B>B GE|AA GE|D2 D2:|
"Chorus"d/d/d d/d/e/e/|d2 A2|=c/c/c c/c/d/d/|=c2 A2|
d/d/d d/d/e/e/|d2 A2|=cA GE|D2 D2||

